X:1
T:Don Juan One
C:Colin Cotter
M:C
K:Eb
E2 E2 E2 c2|BEBc B2 GF|E2 EF G2 B2|F2 F2 z2 GF|E2 E2 E2 c2|
BGBc B2 GF|EDEF GFED|C6 B,2 :||:A,3 B, C2 D2|E3 D E2 F2|
G2 B2 F2 EF|G2 E2 C2 B,2|A,3B, C2 D2|E3 D E2 F2|G2 GF G2 B2|F2 FE D2 B,2 :|
